X: 1
T: Dripsey Polka, The
M: 2/4
L: 1/8
R: polka
K: Amaj
cf ec|Bc A>F|EF Ae|cB BA/B/|
ce ec|Bc AF|EF Ae|cA AB:|
|:ce ec/e/|ae cA|ce e2|cB B2|
ce ec/e/|ae cA|f>e f>e|eA A2:|
